!! 00000] TT[WS
!!!OTL: Maicai
!!!ARE: Asia, China, Shanxi Dingxiang
!! Ethnic Group: Han
!! WI, 58 (1)
!!!SCT: J0064
!!!YEM: Copyright 1995, estate of Helmut Schaffrath.
**kern
*ICvox
*Ivox
!! Mixed meters:  2/4; 3/4
*M3/4
*k[b-]
*F:
{8dd
16dd
16ff
8dd
16cc
16dd
=1
8ff
16dd
16a
2cc}
=2
*M2/4
{8dd
16dd
16cc
8a
16a
16cc
=3
*M3/4
16dd
16ff
16cc
16a
2g}
=4
*M2/4
{8g
16g
16f
8g
16g
16a
=5
8cc
16cc
16a
8.cc
16dd
=6
16f
16g
16e
16d
4c}
=7
{8dd
16dd
16cc
8.a
16cc
=8
8g
16f
16d
16f
16g
16a
16d
=9
2c}
==
!!!AGN: Xiaodiao. Maimai
!!!ONB: ESAC (Essen Associative Code) Database: CHINA
!!!AMT: irregular
!!!AIN: vox
!!!EED: Helmut Schaffrath
!!!EEV: 1.0
*-
